X: 24003
T: Log Cabin, The
R: reel
M: 4/4
K: Cmajor
C3D EFGA|_Bc CD EFG=B|c2BG AcGF|E~C3 _B,3C|
G,CCD EFGA|_Bc CD EFG=B|c2BG AcGF|1 EGFD C3G:|2 EGFD CD E/F/G||
|:c2ec gceg|f/g/f ef dcAB|c2ec Gcec|_BGFD B,CDB,|
G ~c3 gcec|A/B/c de fagf|eg f/e/d c2 GF|1 EGFD CDEG:|2 EGFD C4||

